www.nintendo.com/images/page/super-nes-classic/logo-classics.svg

<svg height="149" viewBox="0 0 245 149" width="245" xmlns="http://www.w3.org/2000/svg" xmlns:xlink="http://www.w3.org/1999/xlink"><mask id="a" fill="#fff"><path d="m0 148.338333h244.756667v-148.338333h-244.756667z" fill="#fff" fill-rule="evenodd"/></mask><g fill="#fefefe" fill-rule="evenodd"><path d="m18.493 143.89h-1.0816667-4.5683333c-.6 0-1.0816667-.36-1.0816667-1.08v-2.525-1.441667-2.043333c0-.596667.4816667-1.203333 1.0816667-1.203333h4.5683333 1.0816667 8.4016667v-4.445h-8.4016667-1.0816667-5.65c-6.24666663 0-5.64666663 5.648333-5.64666663 5.648333v2.043333 1.441667 2.525s-.6 5.528333 5.64666663 5.528333h5.65 1.0816667 8.4016667v-4.448333z"/><path d="m198.001333 143.89h-1.081666-4.568334c-.598333 0-1.081666-.36-1.081666-1.08v-2.525-1.441667-2.043333c0-.596667.483333-1.203333 1.081666-1.203333h4.568334 1.081666 8.401667v-4.445h-8.401667-1.081666-5.65c-6.246667 0-5.646667 5.648333-5.646667 5.648333v2.043333 1.441667 2.525s-.6 5.528333 5.646667 5.528333h5.65 1.081666 8.401667v-4.448333z"/><path d="m168.008333 148.338333h5.77v-17.065h-5.77z" mask="url(#a)"/><path d="m83.4806667 139.6795h-9.7316667v-2.04-.963333c0-.478334.725-1.078334 1.08-1.078334h7.3283333c.8433334 0 1.3233334.6 1.3233334 1.078334v.963333zm-.1216667-8.406667h-9.4933333c-6.1266667 0-5.645 5.651667-5.645 5.651667v.715 10.698333h5.5283333v-4.323333h9.7316667v4.323333h5.53v-10.698333-.715s.72-5.651667-5.6516667-5.651667z" mask="url(#a)"/><path d="m38.9861667 142.6905s-.5983334 5.648333 5.53 5.648333h13.5766666v-4.325h-12.6166666c-.7183334 0-1.44-.726666-1.44-1.446666v-11.295h-5.05z" mask="url(#a)"/><path d="m149.510167 138.242333h-7.811667c-.961667 0-1.681667-.355-1.681667-1.2 0-.723333.72-1.441666 1.441667-1.441666h13.703333v-4.325h-15.023333c-3.008333 0-5.41 2.285-5.41 4.926666 0 3.725 2.645 5.165 5.888333 5.165h7.811667c.961667 0 1.681667.36 1.681667 1.2 0 .72-.72 1.445-1.441667 1.445h-13.94v4.326667h15.381667c2.765 0 5.288333-2.043333 5.288333-4.926667 0-3.485-2.643333-5.17-5.888333-5.17" mask="url(#a)"/><path d="m232.623833 138.242333h-7.811666c-.963334 0-1.683334-.355-1.683334-1.2 0-.723333.72-1.441666 1.441667-1.441666h13.703333v-4.325h-15.023333c-3.006667 0-5.41 2.285-5.41 4.926666 0 3.725 2.646667 5.165 5.89 5.165h7.81c.961667 0 1.681667.36 1.681667 1.2 0 .72-.72 1.445-1.441667 1.445h-13.94v4.326667h15.381667c2.765 0 5.29-2.043333 5.29-4.926667 0-3.485-2.645-5.17-5.888334-5.17" mask="url(#a)"/><path d="m116.604167 138.242333h-7.811667c-.961667 0-1.683333-.355-1.683333-1.2 0-.723333.721666-1.441666 1.441666-1.441666h13.703334v-4.325h-15.023334c-3.006666 0-5.41 2.285-5.41 4.926666 0 3.725 2.645 5.165 5.89 5.165h7.81c.961667 0 1.683334.36 1.683334 1.2 0 .72-.721667 1.445-1.441667 1.445h-13.941667v4.326667h15.383334c2.763333 0 5.288333-2.043333 5.288333-4.926667 0-3.485-2.645-5.17-5.888333-5.17" mask="url(#a)"/><path d="m193.561333 101.132833c-25.92 0-47.005-21.0866663-47.005-47.0066663s21.085-47.00500003 47.005-47.00500003 47.005 21.08500003 47.005 47.00500003-21.085 47.0066663-47.005 47.0066663m-61.595-41.393333-10.38 8.0833333c-1.348333 1.075-3.313333.855-4.39-.4916666-1.076666-1.35-.856666-3.315.491667-4.3916667l10.38-8.0833333c1.348333-1.0766667 3.313333-.855 4.39.4916666 1.076667 1.3483334.858333 3.315-.491667 4.3916667m-26.566666 0-10.3800003 8.0833333c-1.3483334 1.075-3.3133334.855-4.39-.4916666-1.0766667-1.35-.8566667-3.315.4916666-4.3916667l10.3799997-8.0833333c1.348334-1.0766667 3.313334-.855 4.39.4916666 1.076667 1.3483334.856667 3.315-.491666 4.3916667m-54.2050003 22.5433333c-15.525 0-28.1566667-12.6316666-28.1566667-28.1566666 0-15.5266667 12.6316667-28.1566667 28.1566667-28.1566667 15.5266666 0 28.1566666 12.63 28.1566666 28.1566667 0 15.525-12.63 28.1566666-28.1566666 28.1566666m168.9616663-71.9066666v-3.36333337c-7.861666-4.455-16.931666-7.01333333-26.595-7.01333333h-26.59v2.93333333h-89.1866663v-2.93333333h-26.59c-9.6966667 0-18.7983334 2.57666667-26.68 7.06166667v3.36833333c-14.7016667 8.995-24.51500003 25.1983333-24.51500003 43.6983333 0 28.2733334 22.92166663 51.1933337 51.19500003 51.1933337 11.295 0 21.7316666-3.668334 30.1983333-9.861667h81.971667c8.466666 6.193333 18.901666 9.861667 30.196666 9.861667 28.273334 0 51.195-22.9200003 51.195-51.1933337 0-18.535-9.85-34.7666666-24.6-43.7516666" mask="url(#a)"/><path d="m199.082167 42.5586667c-4.031667 3.0866666-9.803334 2.32-12.888334-1.7116667-3.086666-4.0333333-2.32-9.8033333 1.711667-12.89 4.031667-3.085 9.803333-2.3183333 12.888333 1.715 3.086667 4.03 2.32 9.8-1.711666 12.8866667m-25.19 19.28c-4.031667 3.0866666-9.801667 2.32-12.888334-1.7116667-3.086666-4.0333333-2.318333-9.8033333 1.713334-12.8883333 4.031666-3.0866667 9.801666-2.32 12.886666 1.7133333 3.086667 4.03 2.32 9.8016667-1.711666 12.8866667m28.295-33.235c-3.67-4.7933334-10.555-5.7083334-15.348334-2.04l-25.188333 19.2833333c-4.793333 3.6683333-5.708333 10.5533333-2.04 15.3466667 3.67 4.7933333 10.553333 5.7066666 15.346667 2.0383333l25.191666-19.28c4.793334-3.67 5.706667-10.5533333 2.038334-15.3483333" mask="url(#a)"/><path d="m223.224333 61.32c-4.031666 3.0866667-9.801666 2.32-12.886666-1.7116667-3.088334-4.0316666-2.321667-9.8033333 1.711666-12.89 4.031667-3.085 9.801667-2.3183333 12.886667 1.7133334 3.086667 4.0333333 2.32 9.8016666-1.711667 12.8883333m-25.188333 19.28c-4.033333 3.0866667-9.803333 2.32-12.89-1.7116667-3.085-4.0316666-2.318333-9.8033333 1.713333-12.8883333 4.031667-3.0866667 9.801667-2.32 12.888334 1.7116667 3.086666 4.0333333 2.32 9.8033333-1.711667 12.8883333m28.293333-33.235c-3.668333-4.7933333-10.553333-5.7083333-15.348333-2.04l-25.188333 19.2816667c-4.793334 3.67-5.708334 10.5533333-2.04 15.3483333 3.67 4.7933333 10.553333 5.7066667 15.346666 2.0383333l25.191667-19.28c4.793333-3.67 5.706667-10.555 2.038333-15.3483333" mask="url(#a)"/><path d="m70.831 47.111h-12.6v-12.6c0-.575-.4716667-1.0466667-1.0466667-1.0466667h-12.0616666c-.5766667 0-1.0483334.4716667-1.0483334 1.0466667v12.6h-12.6c-.575 0-1.0466666.47-1.0466666 1.0466667v12.0616666c0 .5766667.4716666 1.0466667 1.0466666 1.0466667h12.6v12.6016667c0 .575.4716667 1.0466666 1.0483334 1.0466666h12.0616666c.575 0 1.0466667-.4716666 1.0466667-1.0466666v-12.6016667h12.6c.575 0 1.0466667-.47 1.0466667-1.0466667v-12.0616666c0-.5766667-.4716667-1.0466667-1.0466667-1.0466667" mask="url(#a)"/></g></svg>

<?xml version="1.0" encoding="UTF-8"?>
<svg width="245px" height="149px" viewBox="0 0 245 149" version="1.1" xmlns="http://www.w3.org/2000/svg" xmlns:xlink="http://www.w3.org/1999/xlink">
    <!-- Generator: Sketch 43.2 (39069) - http://www.bohemiancoding.com/sketch -->
    <title>LOGO classics</title>
    <desc>Created with Sketch.</desc>
    <defs>
        <polygon id="path-1" points="0 148.338333 244.756667 148.338333 244.756667 0 0 0"></polygon>
    </defs>
    <g id="Page-1" stroke="none" stroke-width="1" fill="none" fill-rule="evenodd">
        <g id="Clover2_ver04" transform="translate(-706.000000, -3086.000000)">
            <g id="Footer" transform="translate(-208.000000, 3029.000000)">
                <g id="LOGO-classics" transform="translate(914.000000, 57.000000)">
                    <path d="M18.493,143.89 L17.4113333,143.89 L12.843,143.89 C12.243,143.89 11.7613333,143.53 11.7613333,142.81 L11.7613333,140.285 L11.7613333,138.843333 L11.7613333,136.8 C11.7613333,136.203333 12.243,135.596667 12.843,135.596667 L17.4113333,135.596667 L18.493,135.596667 L26.8946667,135.596667 L26.8946667,131.151667 L18.493,131.151667 L17.4113333,131.151667 L11.7613333,131.151667 C5.51466667,131.151667 6.11466667,136.8 6.11466667,136.8 L6.11466667,138.843333 L6.11466667,140.285 L6.11466667,142.81 C6.11466667,142.81 5.51466667,148.338333 11.7613333,148.338333 L17.4113333,148.338333 L18.493,148.338333 L26.8946667,148.338333 L26.8946667,143.89 L18.493,143.89 Z" id="Fill-1" fill="#FEFEFE"></path>
                    <path d="M198.001333,143.89 L196.919667,143.89 L192.351333,143.89 C191.753,143.89 191.269667,143.53 191.269667,142.81 L191.269667,140.285 L191.269667,138.843333 L191.269667,136.8 C191.269667,136.203333 191.753,135.596667 192.351333,135.596667 L196.919667,135.596667 L198.001333,135.596667 L206.403,135.596667 L206.403,131.151667 L198.001333,131.151667 L196.919667,131.151667 L191.269667,131.151667 C185.023,131.151667 185.623,136.8 185.623,136.8 L185.623,138.843333 L185.623,140.285 L185.623,142.81 C185.623,142.81 185.023,148.338333 191.269667,148.338333 L196.919667,148.338333 L198.001333,148.338333 L206.403,148.338333 L206.403,143.89 L198.001333,143.89 Z" id="Fill-3" fill="#FEFEFE"></path>
                    <mask id="mask-2" fill="white">
                        <use xlink:href="#path-1"></use>
                    </mask>
                    <g id="Clip-6"></g>
                    <polygon id="Fill-5" fill="#FEFEFE" mask="url(#mask-2)" points="168.008333 148.338333 173.778333 148.338333 173.778333 131.273333 168.008333 131.273333"></polygon>
                    <path d="M83.4806667,139.6795 L73.749,139.6795 L73.749,137.6395 L73.749,136.676167 C73.749,136.197833 74.474,135.597833 74.829,135.597833 L82.1573333,135.597833 C83.0006667,135.597833 83.4806667,136.197833 83.4806667,136.676167 L83.4806667,137.6395 L83.4806667,139.6795 Z M83.359,131.272833 L73.8656667,131.272833 C67.739,131.272833 68.2206667,136.9245 68.2206667,136.9245 L68.2206667,137.6395 L68.2206667,148.337833 L73.749,148.337833 L73.749,144.0145 L83.4806667,144.0145 L83.4806667,148.337833 L89.0106667,148.337833 L89.0106667,137.6395 L89.0106667,136.9245 C89.0106667,136.9245 89.7306667,131.272833 83.359,131.272833 L83.359,131.272833 Z" id="Fill-7" fill="#FEFEFE" mask="url(#mask-2)"></path>
                    <path d="M38.9861667,142.6905 C38.9861667,142.6905 38.3878333,148.338833 44.5161667,148.338833 L58.0928333,148.338833 L58.0928333,144.013833 L45.4761667,144.013833 C44.7578333,144.013833 44.0361667,143.287167 44.0361667,142.567167 L44.0361667,131.272167 L38.9861667,131.272167 L38.9861667,142.6905 Z" id="Fill-8" fill="#FEFEFE" mask="url(#mask-2)"></path>
                    <path d="M149.510167,138.242333 L141.6985,138.242333 C140.736833,138.242333 140.016833,137.887333 140.016833,137.042333 C140.016833,136.319 140.736833,135.600667 141.4585,135.600667 L155.161833,135.600667 L155.161833,131.275667 L140.1385,131.275667 C137.130167,131.275667 134.7285,133.560667 134.7285,136.202333 C134.7285,139.927333 137.3735,141.367333 140.616833,141.367333 L148.4285,141.367333 C149.390167,141.367333 150.110167,141.727333 150.110167,142.567333 C150.110167,143.287333 149.390167,144.012333 148.6685,144.012333 L134.7285,144.012333 L134.7285,148.339 L150.110167,148.339 C152.875167,148.339 155.3985,146.295667 155.3985,143.412333 C155.3985,139.927333 152.755167,138.242333 149.510167,138.242333" id="Fill-9" fill="#FEFEFE" mask="url(#mask-2)"></path>
                    <path d="M232.623833,138.242333 L224.812167,138.242333 C223.848833,138.242333 223.128833,137.887333 223.128833,137.042333 C223.128833,136.319 223.848833,135.600667 224.5705,135.600667 L238.273833,135.600667 L238.273833,131.275667 L223.2505,131.275667 C220.243833,131.275667 217.8405,133.560667 217.8405,136.202333 C217.8405,139.927333 220.487167,141.367333 223.7305,141.367333 L231.5405,141.367333 C232.502167,141.367333 233.222167,141.727333 233.222167,142.567333 C233.222167,143.287333 232.502167,144.012333 231.7805,144.012333 L217.8405,144.012333 L217.8405,148.339 L233.222167,148.339 C235.987167,148.339 238.512167,146.295667 238.512167,143.412333 C238.512167,139.927333 235.867167,138.242333 232.623833,138.242333" id="Fill-10" fill="#FEFEFE" mask="url(#mask-2)"></path>
                    <path d="M116.604167,138.242333 L108.7925,138.242333 C107.830833,138.242333 107.109167,137.887333 107.109167,137.042333 C107.109167,136.319 107.830833,135.600667 108.550833,135.600667 L122.254167,135.600667 L122.254167,131.275667 L107.230833,131.275667 C104.224167,131.275667 101.820833,133.560667 101.820833,136.202333 C101.820833,139.927333 104.465833,141.367333 107.710833,141.367333 L115.520833,141.367333 C116.4825,141.367333 117.204167,141.727333 117.204167,142.567333 C117.204167,143.287333 116.4825,144.012333 115.7625,144.012333 L101.820833,144.012333 L101.820833,148.339 L117.204167,148.339 C119.9675,148.339 122.4925,146.295667 122.4925,143.412333 C122.4925,139.927333 119.8475,138.242333 116.604167,138.242333" id="Fill-11" fill="#FEFEFE" mask="url(#mask-2)"></path>
                    <path d="M193.561333,101.132833 C167.641333,101.132833 146.556333,80.0461667 146.556333,54.1261667 C146.556333,28.2061667 167.641333,7.12116667 193.561333,7.12116667 C219.481333,7.12116667 240.566333,28.2061667 240.566333,54.1261667 C240.566333,80.0461667 219.481333,101.132833 193.561333,101.132833 M131.966333,59.7395 L121.586333,67.8228333 C120.238,68.8978333 118.273,68.6778333 117.196333,67.3311667 C116.119667,65.9811667 116.339667,64.0161667 117.688,62.9395 L128.068,54.8561667 C129.416333,53.7795 131.381333,54.0011667 132.458,55.3478333 C133.534667,56.6961667 133.316333,58.6628333 131.966333,59.7395 M105.399667,59.7395 L95.0196667,67.8228333 C93.6713333,68.8978333 91.7063333,68.6778333 90.6296667,67.3311667 C89.553,65.9811667 89.773,64.0161667 91.1213333,62.9395 L101.501333,54.8561667 C102.849667,53.7795 104.814667,54.0011667 105.891333,55.3478333 C106.968,56.6961667 106.748,58.6628333 105.399667,59.7395 M51.1946667,82.2828333 C35.6696667,82.2828333 23.038,69.6511667 23.038,54.1261667 C23.038,38.5995 35.6696667,25.9695 51.1946667,25.9695 C66.7213333,25.9695 79.3513333,38.5995 79.3513333,54.1261667 C79.3513333,69.6511667 66.7213333,82.2828333 51.1946667,82.2828333 M220.156333,10.3761667 L220.156333,7.01283333 C212.294667,2.55783333 203.224667,-0.0005 193.561333,-0.0005 L166.971333,-0.0005 L166.971333,2.93283333 L77.7846667,2.93283333 L77.7846667,-0.0005 L51.1946667,-0.0005 C41.498,-0.0005 32.3963333,2.57616667 24.5146667,7.06116667 L24.5146667,10.4295 C9.813,19.4245 -0.000333333333,35.6278333 -0.000333333333,54.1278333 C-0.000333333333,82.4011667 22.9213333,105.321167 51.1946667,105.321167 C62.4896667,105.321167 72.9263333,101.652833 81.393,95.4595 L163.364667,95.4595 C171.831333,101.652833 182.266333,105.321167 193.561333,105.321167 C221.834667,105.321167 244.756333,82.4011667 244.756333,54.1278333 C244.756333,35.5928333 234.906333,19.3611667 220.156333,10.3761667" id="Fill-12" fill="#FEFEFE" mask="url(#mask-2)"></path>
                    <path d="M199.082167,42.5586667 C195.0505,45.6453333 189.278833,44.8786667 186.193833,40.847 C183.107167,36.8136667 183.873833,31.0436667 187.9055,27.957 C191.937167,24.872 197.708833,25.6386667 200.793833,29.672 C203.8805,33.702 203.113833,39.472 199.082167,42.5586667 M173.892167,61.8386667 C169.8605,64.9253333 164.0905,64.1586667 161.003833,60.127 C157.917167,56.0936667 158.6855,50.3236667 162.717167,47.2386667 C166.748833,44.152 172.518833,44.9186667 175.603833,48.952 C178.6905,52.982 177.923833,58.7536667 173.892167,61.8386667 M202.187167,28.6036667 C198.517167,23.8103333 191.632167,22.8953333 186.838833,26.5636667 L161.6505,45.847 C156.857167,49.5153333 155.942167,56.4003333 159.6105,61.1936667 C163.2805,65.987 170.163833,66.9003333 174.957167,63.232 L200.148833,43.952 C204.942167,40.282 205.8555,33.3986667 202.187167,28.6036667" id="Fill-13" fill="#FEFEFE" mask="url(#mask-2)"></path>
                    <path d="M223.224333,61.32 C219.192667,64.4066667 213.422667,63.64 210.337667,59.6083333 C207.249333,55.5766667 208.016,49.805 212.049333,46.7183333 C216.081,43.6333333 221.851,44.4 224.936,48.4316667 C228.022667,52.465 227.256,58.2333333 223.224333,61.32 M198.036,80.6 C194.002667,83.6866667 188.232667,82.92 185.146,78.8883333 C182.061,74.8566667 182.827667,69.085 186.859333,66 C190.891,62.9133333 196.661,63.68 199.747667,67.7116667 C202.834333,71.745 202.067667,77.515 198.036,80.6 M226.329333,47.365 C222.661,42.5716667 215.776,41.6566667 210.981,45.325 L185.792667,64.6066667 C180.999333,68.2766667 180.084333,75.16 183.752667,79.955 C187.422667,84.7483333 194.306,85.6616667 199.099333,81.9933333 L224.291,62.7133333 C229.084333,59.0433333 229.997667,52.1583333 226.329333,47.365" id="Fill-14" fill="#FEFEFE" mask="url(#mask-2)"></path>
                    <path d="M70.831,47.111 L58.231,47.111 L58.231,34.511 C58.231,33.936 57.7593333,33.4643333 57.1843333,33.4643333 L45.1226667,33.4643333 C44.546,33.4643333 44.0743333,33.936 44.0743333,34.511 L44.0743333,47.111 L31.4743333,47.111 C30.8993333,47.111 30.4276667,47.581 30.4276667,48.1576667 L30.4276667,60.2193333 C30.4276667,60.796 30.8993333,61.266 31.4743333,61.266 L44.0743333,61.266 L44.0743333,73.8676667 C44.0743333,74.4426667 44.546,74.9143333 45.1226667,74.9143333 L57.1843333,74.9143333 C57.7593333,74.9143333 58.231,74.4426667 58.231,73.8676667 L58.231,61.266 L70.831,61.266 C71.406,61.266 71.8776667,60.796 71.8776667,60.2193333 L71.8776667,48.1576667 C71.8776667,47.581 71.406,47.111 70.831,47.111" id="Fill-15" fill="#FEFEFE" mask="url(#mask-2)"></path>
                </g>
            </g>
        </g>
    </g>
</svg>
